_includes/glyphs/glyph.svg

<?xml version="1.0" encoding="UTF-8"?>
<svg width="269px" height="208px" viewBox="0 0 269 208" version="1.1" xmlns="http://www.w3.org/2000/svg" xmlns:xlink="http://www.w3.org/1999/xlink">
    <title>glyph</title>
    <g id="glyph" stroke="none" stroke-width="1" fill="none" fill-rule="evenodd">
        <path d="M65.1364,169.5064 C51.7064,151.0864 29.5344,138.9574 6.5134,138.9574 L4.3424,165.0124 C30.6804,165.0124 52.1094,184.4914 52.1094,208.4364 L78.1634,208.4364 C78.1634,184.4914 99.5914,165.0124 125.9294,165.0124 L123.7584,138.9574 C100.7374,138.9574 78.5664,151.0864 65.1364,169.5064" id="Fill-1" fill="#000105"></path>
        <path d="M47.7668,99.8735 C30.3968,99.8735 26.0548,95.5335 26.0548,91.1895 C26.0548,86.8485 30.3968,82.5065 47.7668,82.5065 C65.1368,82.5065 69.4788,86.8485 69.4788,91.1895 C69.4788,95.5335 65.1368,99.8735 47.7668,99.8735 L47.7668,99.8735 Z M99.8758,80.2485 C99.1808,80.3005 98.4608,80.3345 97.7048,80.3345 C96.1858,80.3345 94.7998,80.2095 93.5448,80.0285 C88.7828,67.0885 74.9378,56.4515 47.7668,56.4515 C13.0288,56.4515 0.0038,73.8215 0.0018,91.1895 C-0.0002,108.5615 13.0278,125.9285 47.7668,125.9285 C74.9378,125.9285 88.7828,115.2935 93.5448,102.3525 C94.7998,102.1725 96.1858,102.0465 97.7048,102.0465 C98.4608,102.0465 99.1808,102.0815 99.8758,102.1335 L99.8758,119.4165 L125.9298,121.5885 L125.9298,30.3975 C125.9298,17.3705 128.1008,4.3425 128.1008,4.3425 L99.8758,4.3425 L99.8758,80.2485 Z" id="Fill-3" fill="#000105"></path>
        <path d="M204.0934,26.0566 C233.4044,26.0566 243.1744,29.9446 243.1744,34.7406 C243.1744,39.5366 233.4044,43.4246 204.0934,43.4246 C174.7814,43.4246 165.0114,39.5366 165.0114,34.7406 C165.0114,29.9446 174.7814,26.0566 204.0934,26.0566 M204.0944,69.4786 C254.7564,69.4786 269.2314,53.9266 269.2314,34.7406 C269.2314,15.5556 254.7564,0.0026 204.0944,0.0026 C153.4334,0.0026 138.9584,15.5556 138.9584,34.7406 C138.9584,53.9266 153.4334,69.4786 204.0944,69.4786" id="Fill-5" fill="#000105"></path>
        <path d="M200.5827,84.4009 C181.3387,88.7039 176.4957,95.1229 178.4347,101.2709 C180.3737,107.4199 188.3597,110.9689 207.6037,106.6659 C226.8477,102.3629 231.6907,95.9439 229.7517,89.7959 C227.8127,83.6479 219.8267,80.0979 200.5827,84.4009" id="Fill-7" fill="#000105"></path>
        <path d="M143.2995,121.5884 L143.2995,147.6424 C143.2995,147.6424 161.2375,145.9224 189.2885,144.1704 C183.6935,166.1674 165.2215,182.3814 143.2995,182.3814 L145.4705,208.4364 C168.4915,208.4364 190.6625,194.7914 204.0935,174.0694 C217.5235,194.7914 239.6955,208.4364 262.7155,208.4364 L264.8865,182.3814 C242.4375,182.3814 223.6075,165.3764 218.5205,142.5694 C246.7905,141.2584 264.8865,141.1284 264.8865,141.1284 L264.8865,112.9024 C264.8865,112.9024 239.9185,117.4314 203.4975,119.4334 C167.0755,121.4344 143.2995,121.5884 143.2995,121.5884" id="Fill-9" fill="#000105"></path>
        <path d="M43.424,39.082 C43.424,39.082 34.739,17.37 30.397,-5.68434189e-14 L0,4.343 L17.37,43.425 L43.424,39.082 Z" id="Fill-11" fill="#000105"></path>
        <path d="M86.8483,39.082 C86.8483,39.082 78.1633,17.37 73.8213,-5.68434189e-14 L43.4243,4.343 L60.7933,43.425 L86.8483,39.082 Z" id="Fill-13" fill="#000105"></path>
    </g>
</svg>

<svg width="269" height="208" viewBox="0 0 269 208" xmlns="http://www.w3.org/2000/svg">
  <path d="M65.136 169.506c-13.43-18.42-35.602-30.549-58.623-30.549l-2.17 26.055c26.337 0 47.766 19.48 47.766 43.424h26.054c0-23.945 21.428-43.424 47.766-43.424l-2.17-26.055c-23.022 0-45.193 12.13-58.623 30.55M47.767 99.874c-17.37 0-21.712-4.34-21.712-8.684 0-4.341 4.342-8.683 21.712-8.683s21.712 4.341 21.712 8.682c0 4.345-4.342 8.685-21.712 8.685Zm52.109-19.625c-.695.052-1.415.086-2.171.086-1.52 0-2.905-.125-4.16-.306-4.762-12.94-18.607-23.577-45.778-23.577-34.738 0-47.763 17.37-47.765 34.737-.002 17.373 13.026 34.74 47.765 34.74 27.17 0 41.016-10.636 45.778-23.576a29.14 29.14 0 0 1 4.16-.306c.756 0 1.476.035 2.17.087v17.282l26.055 2.172v-91.19c0-13.027 2.17-26.055 2.17-26.055H99.877v75.906ZM204.093 26.057c29.311 0 39.081 3.888 39.081 8.684 0 4.796-9.77 8.684-39.08 8.684-29.313 0-39.083-3.888-39.083-8.684 0-4.796 9.77-8.684 39.082-8.684m.001 43.422c50.662 0 65.137-15.552 65.137-34.738 0-19.185-14.475-34.738-65.137-34.738-50.66 0-65.136 15.553-65.136 34.738 0 19.186 14.475 34.738 65.136 34.738M200.583 84.4c-19.244 4.304-24.087 10.723-22.148 16.87 1.939 6.15 9.925 9.699 29.169 5.396s24.087-10.722 22.148-16.87c-1.94-6.148-9.925-9.698-29.17-5.395M143.3 121.588v26.054s17.938-1.72 45.988-3.472c-5.595 21.997-24.067 38.211-45.989 38.211l2.171 26.055c23.022 0 45.192-13.645 58.624-34.367 13.43 20.722 35.602 34.367 58.622 34.367l2.17-26.055c-22.449 0-41.279-17.005-46.366-39.812 28.27-1.31 46.367-1.44 46.367-1.44v-28.227s-24.969 4.53-61.39 6.531c-36.422 2.001-60.198 2.155-60.198 2.155M43.424 39.082S34.739 17.37 30.397 0L0 4.343l17.37 39.082 26.054-4.343Z"/>
  <path d="M86.848 39.082S78.163 17.37 73.821 0L43.424 4.343l17.37 39.082 26.054-4.343Z"/>
</svg>
